communes/5888.svg

<?xml version="1.0" encoding="UTF-8"?>
<svg version="1.0" viewBox="0 0 603 763" xmlns="http://www.w3.org/2000/svg" xmlns:cc="http://creativecommons.org/ns#" xmlns:dc="http://purl.org/dc/elements/1.1/" xmlns:rdf="http://www.w3.org/1999/02/22-rdf-syntax-ns#" xmlns:xlink="http://www.w3.org/1999/xlink">
<metadata>
<rdf:RDF>
<cc:Work rdf:about="">
<dc:format>image/svg+xml</dc:format>
<dc:type rdf:resource="http://purl.org/dc/dcmitype/StillImage"/>
<dc:date>07-AUG-2006</dc:date>
<dc:creator>
<cc:Agent>
<dc:title>Jérôme BLUM (wagner51)</dc:title>
</cc:Agent>
</dc:creator>
<cc:license rdf:resource="http://creativecommons.org/licenses/GPL/2.0/"/>
<dc:coverage/>
<dc:description>Gabarit pour le Projet:Blasons de WIkipédia</dc:description>
<dc:subject>
<rdf:Bag>
<rdf:li>blason suisse modèle gabarit projet blasons</rdf:li>
</rdf:Bag>
</dc:subject>
<dc:language>fr</dc:language>
<dc:title>Gabrit d'un blason suisse</dc:title>
</cc:Work>
<cc:License rdf:about="http://creativecommons.org/licenses/GPL/2.0/">
<cc:permits rdf:resource="http://web.resource.org/cc/Reproduction"/>
<cc:permits rdf:resource="http://web.resource.org/cc/Distribution"/>
<cc:requires rdf:resource="http://web.resource.org/cc/Notice"/>
<cc:permits rdf:resource="http://web.resource.org/cc/DerivativeWorks"/>
<cc:requires rdf:resource="http://web.resource.org/cc/ShareAlike"/>
<cc:requires rdf:resource="http://web.resource.org/cc/SourceCode"/>
</cc:License>
</rdf:RDF>
</metadata>
<defs>
<radialGradient id="a" cx="858.04" cy="579.93" r="300" gradientTransform="matrix(1.215 1.5316e-24 1.4647e-23 1.2667 -839.19 -490.49)" gradientUnits="userSpaceOnUse">
<stop stop-color="#fff" stop-opacity=".31373" offset="0"/>
<stop stop-color="#fff" stop-opacity=".25098" offset=".19"/>
<stop stop-color="#6b6b6b" stop-opacity=".12549" offset=".6"/>
<stop stop-opacity=".12549" offset="1"/>
</radialGradient>
</defs>
<desc>Coat of Arms of Canton of Freiburg (Fribourg)</desc>
<g>
<path d="m1.5 1.5v458.87c0 166.31 134.31 301.13 300 301.13 165.69 0 300-134.82 300-301.13v-458.87h-600z" fill="#e20909"/>
<path d="m530.12 328.45c-2.572-19.778-19.488-35.115-39.956-35.115-22.037 0-39.977 17.771-40.303 39.732h-113.36v-113.36c21.961-0.326 39.731-18.266 39.731-40.303 0-20.468-15.337-37.384-35.115-39.956-3.502-18.697-19.919-32.901-39.617-32.901s-36.116 14.204-39.617 32.901c-19.778 2.572-35.115 19.488-35.115 39.956 0 22.037 17.771 39.977 39.732 40.303v113.36h-113.36c-0.326-21.961-18.266-39.732-40.303-39.732-20.468 0-37.384 15.337-39.956 35.115-18.697 3.501-32.901 19.919-32.901 39.617s14.204 36.116 32.901 39.617c2.572 19.778 19.488 35.115 39.956 35.115 22.037 0 39.976-17.771 40.303-39.731h113.36v113.36c-21.96 0.326-39.732 18.266-39.732 40.303 0 20.468 15.337 37.384 35.115 39.956 3.501 18.697 19.919 32.9 39.617 32.9s36.116-14.203 39.617-32.9c19.778-2.572 35.115-19.488 35.115-39.956 0-22.037-17.771-39.977-39.731-40.303v-113.36h113.36c0.326 21.961 18.266 39.731 40.303 39.731 20.468 0 37.384-15.337 39.956-35.115 18.697-3.501 32.9-19.919 32.9-39.617s-14.202-36.116-32.899-39.617z" fill="#fcef3c" stroke="#000" stroke-width="3"/>
<path d="m522.69 344.73h-9.191v-11.066c0-12.886-10.446-23.333-23.333-23.333s-23.333 10.447-23.333 23.333v16.399h-147.33v-147.33h16.398c12.886 0 23.333-10.446 23.333-23.333s-10.447-23.333-23.333-23.333h-11.066v-9.191c0-12.887-10.447-23.333-23.333-23.333-12.887 0-23.333 10.446-23.333 23.333v9.191h-11.066c-12.886 0-23.333 10.446-23.333 23.333s10.447 23.333 23.333 23.333h16.399v147.33h-147.33v-16.399c0-12.886-10.446-23.333-23.333-23.333s-23.333 10.447-23.333 23.333v11.066h-9.191c-12.887 0-23.333 10.447-23.333 23.333 0 12.887 10.446 23.333 23.333 23.333h9.191v11.066c0 12.886 10.446 23.333 23.333 23.333s23.333-10.447 23.333-23.333v-16.398h147.33v147.33h-16.399c-12.886 0-23.333 10.446-23.333 23.333s10.447 23.333 23.333 23.333h11.066v9.191c0 12.887 10.446 23.332 23.333 23.332 12.886 0 23.333-10.445 23.333-23.332v-9.191h11.066c12.886 0 23.333-10.446 23.333-23.333s-10.447-23.333-23.333-23.333h-16.398v-147.33h147.33v16.398c0 12.886 10.446 23.333 23.333 23.333s23.333-10.447 23.333-23.333v-11.066h9.191c12.887 0 23.332-10.446 23.332-23.333 1e-3 -12.886-10.445-23.333-23.331-23.333z" fill="#5ab532" stroke="#000" stroke-width="3"/>
</g>
<g>
<path d="m1.5 1.5v458.87c0 166.31 134.31 301.13 300 301.13 165.69 0 300-134.82 300-301.13v-458.87h-600z" fill="url(#a)"/>
<path d="m1.5 1.5v458.87c0 166.31 134.31 301.13 300 301.13 165.69 0 300-134.82 300-301.13v-458.87h-600z" fill="none" stroke="#000" stroke-width="3"/>
</g>
</svg>

<?xml version="1.0" encoding="UTF-8" standalone="no"?>
<svg
   xmlns:dc="http://purl.org/dc/elements/1.1/"
   xmlns:cc="http://creativecommons.org/ns#"
   xmlns:rdf="http://www.w3.org/1999/02/22-rdf-syntax-ns#"
   xmlns:svg="http://www.w3.org/2000/svg"
   xmlns="http://www.w3.org/2000/svg"
   xmlns:xlink="http://www.w3.org/1999/xlink"
   xmlns:sodipodi="http://sodipodi.sourceforge.net/DTD/sodipodi-0.dtd"
   xmlns:inkscape="http://www.inkscape.org/namespaces/inkscape"
   height="763"
   width="603"
   version="1.0"
   id="svg20"
   sodipodi:version="0.32"
   inkscape:version="0.46"
   sodipodi:docname="Saint-Legier-La_Chiesaz-coat_of_arms.svg"
   sodipodi:docbase="C:\Documents and Settings\Steve\Bureau\Blason Villages Suisse pour Wikipédia (par Delta-9)"
   inkscape:output_extension="org.inkscape.output.svg.inkscape">
  <metadata
     id="metadata31">
    <rdf:RDF>
      <cc:Work
         rdf:about="">
        <dc:format>image/svg+xml</dc:format>
        <dc:type
           rdf:resource="http://purl.org/dc/dcmitype/StillImage" />
        <dc:date>07-AUG-2006</dc:date>
        <dc:creator>
          <cc:Agent>
            <dc:title>Jérôme BLUM (wagner51)</dc:title>
          </cc:Agent>
        </dc:creator>
        <cc:license
           rdf:resource="http://creativecommons.org/licenses/GPL/2.0/" />
        <dc:coverage />
        <dc:description>Gabarit pour le Projet:Blasons de WIkipédia</dc:description>
        <dc:subject>
          <rdf:Bag>
            <rdf:li>blason suisse modèle gabarit projet blasons</rdf:li>
          </rdf:Bag>
        </dc:subject>
        <dc:language>fr</dc:language>
        <dc:title>Gabrit d'un blason suisse</dc:title>
      </cc:Work>
      <cc:License
         rdf:about="http://creativecommons.org/licenses/GPL/2.0/">
        <cc:permits
           rdf:resource="http://web.resource.org/cc/Reproduction" />
        <cc:permits
           rdf:resource="http://web.resource.org/cc/Distribution" />
        <cc:requires
           rdf:resource="http://web.resource.org/cc/Notice" />
        <cc:permits
           rdf:resource="http://web.resource.org/cc/DerivativeWorks" />
        <cc:requires
           rdf:resource="http://web.resource.org/cc/ShareAlike" />
        <cc:requires
           rdf:resource="http://web.resource.org/cc/SourceCode" />
      </cc:License>
    </rdf:RDF>
  </metadata>
  <defs
     id="defs29"><inkscape:perspective
   sodipodi:type="inkscape:persp3d"
   inkscape:vp_x="0 : 381.5 : 1"
   inkscape:vp_y="0 : 1000 : 0"
   inkscape:vp_z="603 : 381.5 : 1"
   inkscape:persp3d-origin="301.5 : 254.33333 : 1"
   id="perspective28" />
<linearGradient
   id="linearGradient2893">
  <stop
     style="stop-color:#ffffff;stop-opacity:0.3137255;"
     offset="0"
     id="stop2895" />
  <stop
     id="stop2897"
     offset="0.19"
     style="stop-color:#ffffff;stop-opacity:0.25098041;" />
  <stop
     style="stop-color:#6b6b6b;stop-opacity:0.1254902;"
     offset="0.60000002"
     id="stop2901" />
  <stop
     style="stop-color:#000000;stop-opacity:0.1254902;"
     offset="1"
     id="stop2899" />
</linearGradient>
<linearGradient
   id="linearGradient2955">
  <stop
     style="stop-color:white;stop-opacity:0;"
     offset="0"
     id="stop2965" />
  <stop
     style="stop-color:black;stop-opacity:0.64583331;"
     offset="1"
     id="stop2959" />
</linearGradient>
<radialGradient
   inkscape:collect="always"
   xlink:href="#linearGradient2893"
   id="radialGradient3236"
   gradientUnits="userSpaceOnUse"
   gradientTransform="matrix(1.215027,1.531577e-24,1.464684e-23,1.266667,-839.1924,-490.4894)"
   cx="858.04236"
   cy="579.93323"
   fx="858.04236"
   fy="579.93323"
   r="300" />
<inkscape:perspective
   id="perspective2503"
   inkscape:persp3d-origin="297.63751 : 280.63 : 1"
   inkscape:vp_z="595.27502 : 420.94501 : 1"
   inkscape:vp_y="0 : 1000 : 0"
   inkscape:vp_x="0 : 420.94501 : 1"
   sodipodi:type="inkscape:persp3d" />

	
	

	
</defs>
  <sodipodi:namedview
     inkscape:window-height="810"
     inkscape:window-width="1160"
     inkscape:pageshadow="2"
     inkscape:pageopacity="0.0"
     guidetolerance="10.0"
     gridtolerance="10.0"
     objecttolerance="10.0"
     borderopacity="1.0"
     bordercolor="#666666"
     pagecolor="#ffffff"
     id="base"
     inkscape:zoom="0.61745605"
     inkscape:cx="288.50457"
     inkscape:cy="366.52781"
     inkscape:window-x="20"
     inkscape:window-y="42"
     inkscape:current-layer="layer2"
     showgrid="false"
     showguides="true"
     inkscape:guide-bbox="true">
    <sodipodi:guide
       orientation="horizontal"
       position="761.5"
       id="guide1885" />
    <sodipodi:guide
       orientation="vertical"
       position="1.5"
       id="guide1887" />
    <sodipodi:guide
       orientation="horizontal"
       position="1.5"
       id="guide1889" />
    <sodipodi:guide
       orientation="vertical"
       position="601.5"
       id="guide1891" />
    <sodipodi:guide
       orientation="vertical"
       position="301.50081"
       id="guide1893" />
  </sodipodi:namedview>
  <desc
     id="desc22">Coat of Arms of Canton of Freiburg (Fribourg)</desc>
  <g
     inkscape:groupmode="layer"
     id="layer1"
     inkscape:label="Fond écu"
     style="opacity:1;display:inline"
     sodipodi:insensitive="true">
    <path
       id="path1899"
       d="M 1.5,1.49998 L 1.5,460.3679 C 1.5,626.6785 135.81456,761.5 301.49999,761.5 C 467.18543,761.5 601.5,626.6785 601.5,460.3679 L 601.5,1.49998 L 1.5,1.49998 z"
       style="fill:#e20909;fill-opacity:1" />
  </g>
  <g
     inkscape:groupmode="layer"
     id="layer2"
     inkscape:label="Meubles"
     style="opacity:1;display:inline"
     sodipodi:insensitive="true">
    <path
       id="path2494"
       d="M 530.122,328.449 C 527.55,308.671 510.634,293.334 490.166,293.334 C 468.129,293.334 450.189,311.105 449.863,333.066 L 336.5,333.066 L 336.5,219.703 C 358.461,219.377 376.231,201.437 376.231,179.4 C 376.231,158.932 360.894,142.016 341.116,139.444 C 337.614,120.747 321.197,106.543 301.499,106.543 C 281.801,106.543 265.383,120.747 261.882,139.444 C 242.104,142.016 226.767,158.932 226.767,179.4 C 226.767,201.437 244.538,219.377 266.499,219.703 L 266.499,333.066 L 153.135,333.066 C 152.809,311.105 134.869,293.334 112.832,293.334 C 92.364,293.334 75.448,308.671 72.876,328.449 C 54.179,331.95 39.975,348.368 39.975,368.066 C 39.975,387.764 54.179,404.182 72.876,407.683 C 75.448,427.461 92.364,442.798 112.832,442.798 C 134.869,442.798 152.808,425.027 153.135,403.067 L 266.498,403.067 L 266.498,516.43 C 244.538,516.756 226.766,534.696 226.766,556.733 C 226.766,577.201 242.103,594.117 261.881,596.689 C 265.382,615.386 281.8,629.589 301.498,629.589 C 321.196,629.589 337.614,615.386 341.115,596.689 C 360.893,594.117 376.23,577.201 376.23,556.733 C 376.23,534.696 358.459,516.756 336.499,516.43 L 336.499,403.067 L 449.862,403.067 C 450.188,425.028 468.128,442.798 490.165,442.798 C 510.633,442.798 527.549,427.461 530.121,407.683 C 548.818,404.182 563.021,387.764 563.021,368.066 C 563.021,348.368 548.819,331.95 530.122,328.449 z"
       style="fill:#fcef3c;stroke:#000000;stroke-width:3" />
    <path
       id="path2496"
       d="M 522.691,344.733 L 513.5,344.733 L 513.5,333.667 C 513.5,320.781 503.054,310.334 490.167,310.334 C 477.28,310.334 466.834,320.781 466.834,333.667 L 466.834,350.066 L 319.5,350.066 L 319.5,202.733 L 335.898,202.733 C 348.784,202.733 359.231,192.287 359.231,179.4 C 359.231,166.513 348.784,156.067 335.898,156.067 L 324.832,156.067 L 324.832,146.876 C 324.832,133.989 314.385,123.543 301.499,123.543 C 288.612,123.543 278.166,133.989 278.166,146.876 L 278.166,156.067 L 267.1,156.067 C 254.214,156.067 243.767,166.513 243.767,179.4 C 243.767,192.287 254.214,202.733 267.1,202.733 L 283.499,202.733 L 283.499,350.066 L 136.166,350.066 L 136.166,333.667 C 136.166,320.781 125.72,310.334 112.833,310.334 C 99.946,310.334 89.5,320.781 89.5,333.667 L 89.5,344.733 L 80.309,344.733 C 67.422,344.733 56.976,355.18 56.976,368.066 C 56.976,380.953 67.422,391.399 80.309,391.399 L 89.5,391.399 L 89.5,402.465 C 89.5,415.351 99.946,425.798 112.833,425.798 C 125.72,425.798 136.166,415.351 136.166,402.465 L 136.166,386.067 L 283.499,386.067 L 283.499,533.4 L 267.1,533.4 C 254.214,533.4 243.767,543.846 243.767,556.733 C 243.767,569.62 254.214,580.066 267.1,580.066 L 278.166,580.066 L 278.166,589.257 C 278.166,602.144 288.612,612.589 301.499,612.589 C 314.385,612.589 324.832,602.144 324.832,589.257 L 324.832,580.066 L 335.898,580.066 C 348.784,580.066 359.231,569.62 359.231,556.733 C 359.231,543.846 348.784,533.4 335.898,533.4 L 319.5,533.4 L 319.5,386.067 L 466.833,386.067 L 466.833,402.465 C 466.833,415.351 477.279,425.798 490.166,425.798 C 503.053,425.798 513.499,415.351 513.499,402.465 L 513.499,391.399 L 522.69,391.399 C 535.577,391.399 546.022,380.953 546.022,368.066 C 546.023,355.18 535.577,344.733 522.691,344.733 z"
       style="fill:#5ab532;stroke:#000000;stroke-width:3" />
  </g>
  <g
     inkscape:groupmode="layer"
     id="layer3"
     inkscape:label="Reflet final"
     style="display:inline"
     sodipodi:insensitive="true">
    <path
       style="fill:url(#radialGradient3236);fill-opacity:1"
       d="M 1.5,1.5 L 1.5,460.3679 C 1.5,626.67854 135.81454,761.5 301.49993,761.5 C 467.1854,761.5 601.5,626.67854 601.5,460.3679 L 601.5,1.5 L 1.5,1.5 z "
       id="path2346" />
  </g>
  <g
     inkscape:groupmode="layer"
     id="layer4"
     inkscape:label="Contour final"
     style="display:inline"
     sodipodi:insensitive="true">
    <path
       style="fill:none;fill-opacity:1;stroke:#000000;stroke-width:3;stroke-miterlimit:4;stroke-dasharray:none;stroke-opacity:1"
       d="M 1.5,1.5 L 1.5,460.36794 C 1.5,626.67854 135.81454,761.5 301.49993,761.5 C 467.1854,761.5 601.5,626.67854 601.5,460.36794 L 601.5,1.5 L 1.5,1.5 z "
       id="path3239" />
  </g>
</svg>
